!!!!SEGMENT: pl-wtm--r-1141-1--001-003_dobrzynski-ignacy-feliks--quartetto-op-8-minuetto-alla-masovienne.krn
!!!cenid: 18xx:1746
!!!COM: Dobrzyński, Ignacy Feliks
!!!COM-rismID: pe30020642
!!!CDT: 1807/02/15-1867/10/09
!!!CNT: Polish
!!!OPR: Quartetto op. 8
!!!OTL: Minuetto alla masovienne
!!!OMV: 003
!!!PDT: 1829
!!!AGN: Secular; String quartet
!!!YEC: Copyright 2022 Narodowy Instytut Fryderyka Chopina (https://polishscores.org)
!!!YEM: License CC-BY-4.0 (https://creativecommons.org/licenses/by/4.0)
!!!SMS-siglum: PL-Wtm
!!!SMS-shelfmark: R 1141/1
!!!SMS-shelfwork: 001-003 M
!!!SMS-variant:
!!!SMS-altvar:
!!!NIFC-rismSourceID: 1001056491
!!!NIFC-rismChildID: 1001056491
!!!NIFC-islandoraID:
!!!URL-pdf-islandora:
!!!URL-scan:
!!!IIIF:
!!!ONB-nifc: UWAGA: części Kwartetu: 1. Allegro, 2. Andante con variazioni, 3. Minuetto alla masovienne, 4. Finale
!!!AIN: 1 alto 3 cello
!!!key: D
**kern	**dynam	**kern	**dynam	**kern	**dynam	**kern	**dynam
*part4	*	*part3	*	*part2	*	*part1	*
*staff4	*	*staff3	*	*staff2	*	*staff1	*
*Icello	*	*Ialto	*	*Icello	*	*Icello	*
*I"Violoncelle	*	*I"Alto	*	*I"Violono [II]	*	*I"Violono [I]	*
*I'vlc	*	*I'vla	*	*I'vl 2	*	*I'vl 2	*
*Icello	*	*Iviola	*	*Ivioln	*	*Ivioln	*
*ICstr	*	*ICstr	*	*ICstr	*	*ICstr	*
*mI"Violoncello	*	*mI"Viola	*	*mI"Violino II	*	*mI"Violino I	*
*clefF4	*	*clefC3	*	*clefG2	*	*clefG2	*
*k[f#c#]	*	*k[f#c#]	*	*k[f#c#]	*	*k[f#c#]	*
*D:	*	*D:	*	*D:	*	*D:	*
*M3/4	*	*M3/4	*	*M3/4	*	*M3/4	*
*>[A,A,B,B1,B,B2,C,D,D1,D,D2,E,A,A,B,B]	*	*>[A,A,B,B1,B,B2,C,D,D1,D,D2,E,A,A,B,B]	*	*>[A,A,B,B1,B,B2,C,D,D1,D,D2,E,A,A,B,B]	*	*>[A,A,B,B1,B,B2,C,D,D1,D,D2,E,A,A,B,B]	*
=1	=1	=1	=1	=1	=1	=1	=1
*>A	*	*>A	*	*>A	*	*>A	*
!!!OMD:
!!!OMD-mod: Allegro moderato
!	!LO:MO:null:mod=!LO&colon;DY&colon;ed=brack	!	!	!	!	!	!
!	!	!	!	!	!	!LO:TX:a:Bi:t=Allegro moderato.:problem=dotyczy wszystkich głosów:mod=	!
!	!LO:MO:null:mod=f	!LO:TX:a:Bi:t=8va Col 1mo:mod=	!	!	!	!	!
8.DD/L	.	8.D\Lyy	f	8.d/L	f	8.d/L	f
16EE/Jk	.	16E\Jkyy	.	16e/Jk	.	16e/Jk	.
!	!	!	!	!LO:TX:a:Bi:t=Uniſono Col 1mo:mod=	!	!	!
4FF#/	.	4F#\yy	.	4f#/yy	.	4f#/	.
4GG/	.	4G\yy	.	4g/yy	.	4g/	.
=2	=2	=2	=2	=2	=2	=2	=2
2AA/	.	2A\yy	.	2a\yy	.	2a\	.
8.BB/L	.	8.B\Lyy	.	8.b\Lyy	.	8.b\L	.
16C#/Jk	.	16c#\Jkyy	.	16cc#\Jkyy	.	16cc#\Jk	.
=3	=3	=3	=3	=3	=3	=3	=3
8.D\L	.	8.d\Lyy	.	8.dd\Lyy	.	8.dd\L	.
16E\Jk	.	16e\Jkyy	.	16ee\Jkyy	.	16ee\Jk	.
4F#\	.	4f#\yy	.	4ff#\yy	.	4ff#\	.
4G\	.	4g\yy	.	4gg\yy	.	4gg\	.
=4	=4	=4	=4	=4	=4	=4	=4
2A\	.	2a\	.	2aa\yy	.	[>2aa\	.
4r	.	4r	.	4r	.	8.aa\L]	p
.	.	.	.	.	.	16gg\Jk	.
=5	=5	=5	=5	=5	=5	=5	=5
2.r	.	2.r	.	2.r	.	8.ff#\L	.
.	.	.	.	.	.	16ee\Jk	.
.	.	.	.	.	.	4dd\	.
.	.	.	.	.	.	8.cc#\L	.
.	.	.	.	.	.	16b\Jk	.
=6	=6	=6	=6	=6	=6	=6	=6
!	!	!LO:SIC:s=(2c#^	!	!	!	!	!
(<2F#^>/	p	(<2c#/	p	(<2e^>/	p	2a#Xt>\	.
.	.	.	.	.	.	16qqg#X/LL	.
.	.	.	.	.	.	16qqa#/JJ	.
4BB/)	.	4B/)	.	4d/)	.	8.b\L	.
.	.	.	.	.	.	16an\Jk	.
=7	=7	=7	=7	=7	=7	=7	=7
2.r	.	4r	.	4r	.	8.g#X\L	.
.	.	.	.	.	.	16a\Jk	.
!	!	!LO:MO:mod=!LO&colon;TX&colon;i&colon;t=pizz.	!	!LO:MO:mod=!LO&colon;TX&colon;i&colon;t=pizz.	!	!	!
!	!	!LO:TX:b:Bi:t=pizz&colon;	!	!LO:TX:b:Bi:t=pizz&colon;	!	!	!
.	.	4d 4E/	.	4g#X/	.	4b\	.
.	.	4d 4E/	.	4g#/	.	4cc#\	.
=8	=8	=8	=8	=8	=8	=8	=8
8.AA/L	p	4c# 4E/	.	4a/	.	4a\	.
16BB/Jk	.	.	.	.	.	.	.
4C#/	.	4r	.	4r	.	4r	.
4D/	.	4r	.	4r	.	4r	.
=9	=9	=9	=9	=9	=9	=9	=9
*	*	*tremolo	*	*tremolo	*	*	*
!	!	!LO:MO:mod=!LO&colon;TX&colon;i&colon;t=arco	!	!LO:MO:mod=!LO&colon;TX&colon;i&colon;t=arco	!	!	!
!	!	!LO:TX:a:Bi:t=arco	!	!LO:TX:a:Bi:t=arco	!	!	!
2E\	.	8B/L	.	8d/L	.	8.ee\L	p
.	.	8E/	.	8e/	.	.	.
.	.	.	.	.	.	16ff#\Jk	.
.	.	8B/	.	8d/	.	4ee\	.
.	.	8E/	.	8e/	.	.	.
8.F#\L	.	8B/	.	8d/	.	4dd\	.
.	.	8E/J	.	8e/J	.	.	.
16G#X\Jk	.	.	.	.	.	.	.
=10	=10	=10	=10	=10	=10	=10	=10
2A\	.	8A/L	.	8c#/L	.	8.cc#\L	.
.	.	8c#/	.	8e/	.	.	.
.	.	.	.	.	.	16b\Jk	.
.	.	8A/	.	8c#/	.	4a\	.
.	.	8c#/J	.	8e/J	.	.	.
*	*	*Xtremolo	*	*Xtremolo	*	*	*
4D\	.	8d\L	.	8f#/L	.	4b\	.
.	.	8B\J	.	8d/J	.	.	.
=11	=11	=11	=11	=11	=11	=11	=11
*	*	*tremolo	*	*tremolo	*	*	*
!	!	!	!	!	!	!LO:TUP:a	!
4E\	.	8B/L	.	8d/L	.	12a/L	.
.	.	.	.	.	.	12g#X/	.
.	.	8E/	.	8e/	.	.	.
.	.	.	.	.	.	12f#/J	.
4E\	.	8B/	.	8d/	.	4e/	.
.	.	8E/	.	8e/	.	.	.
4E\	.	8B/	.	8d/	.	8.f#/L	.
.	.	8E/J	.	8e/J	.	.	.
.	.	.	.	.	.	16g#/Jk	.
*	*	*	*	*Xtremolo	*	*	*
=12	=12	=12	=12	=12	=12	=12	=12
8.AA/L	.	8A/L	.	8c#/L	.	4a/	.
.	.	8c#/	.	8e/	.	.	.
16BB/Jk	.	.	.	.	.	.	.
4C#/	.	8A/	.	8c#/	.	4r	.
.	.	8c#/J	.	8e/	.	.	.
*	*	*Xtremolo	*	*	*	*	*
4D/	.	8B/L	.	8f#/	.	4r	.
.	.	8B/J	.	8f#/J	.	.	.
!!LO:LB:g=original
=13	=13	=13	=13	=13	=13	=13	=13
*	*	*tremolo	*	*tremolo	*	*	*
2E\	.	8B/L	.	8d/L	.	8.ee\L	.
.	.	8E/	.	8e/	.	.	.
.	.	.	.	.	.	16ff#\Jk	.
.	.	8B/	.	8d/	.	4ee\	.
.	.	8E/	.	8e/	.	.	.
8.F#\L	.	8B/	.	8d/	.	4dd\	.
.	.	8E/J	.	8e/J	.	.	.
16G#X\Jk	.	.	.	.	.	.	.
*	*	*Xtremolo	*	*Xtremolo	*	*	*
=14	=14	=14	=14	=14	=14	=14	=14
4A\	.	8A/L	.	8c#/L	.	8.cc#\L	.
.	.	8c#/	.	8e/	.	.	.
.	.	.	.	.	.	16b\Jk	.
4F#\	.	8A/	.	8c#/	.	4a\	.
.	.	8c#/	.	8f#/	.	.	.
4D\	.	8B/	.	8d/	.	4b\	.
.	.	8d/J	.	8f#/J	.	.	.
=15	=15	=15	=15	=15	=15	=15	=15
!	!	!	!	!	!	!LO:MO:mod=*null:null	!
*	*	*	*	*	*	*Xtuplet	*
*	*	*tremolo	*	*tremolo	*	*	*
4E\	.	8B/L	.	8d/L	.	12a/L	.
.	.	.	.	.	.	12g#X/	.
.	.	8E/	.	8e/	.	.	.
.	.	.	.	.	.	12f#/J	.
4E\	.	8B/	.	8d/	.	4e/	.
.	.	8E/	.	8e/	.	.	.
4E\	.	8B/	.	8d/	.	8.f#/L	.
.	.	8E/J	.	8e/J	.	.	.
.	.	.	.	.	.	16g#/Jk	.
*	*	*Xtremolo	*	*Xtremolo	*	*	*
*	*	*	*	*	*	*tuplet	*
=16	=16	=16	=16	=16	=16	=16	=16
4AA/	.	4A/	.	4c#/	.	4a/	.
!	!LO:MO:null:mod=!LO&colon;DY&colon;ed=brack	!	!	!	!	!	!
!	!	!	!	!	!	!	!
!	!LO:MO:null:mod=fz	!	!	!	!	!	!
(>2C#/	.	(>2e#X\	fz	(>2g#X [<2c#/	fz	(>4.ccc#\	fz
!	!LO:MO:null:mod=>	!	!	!	!	!	!
.	.	.	>	.	>	8bb\	>
=17	=17	=17	=17	=17	=17	=17	=17
!	!LO:MO:null:mod=!LO&colon;DY&colon;ed=brack	!	!	!	!	!	!
!	!	!	!	!	!	!	!
!	!LO:MO:null:mod=p	!	!	!LO:S:s=1:note:problem=note-level slur	!	!	!
4F#\)	.	4f#\)	p	4a) 4c#/]	p	8aa\L)	.
.	.	.	.	.	.	(>8ee#X\	p
4D\	.	4f#\	.	4b/	.	8gg#X\)	.
.	.	.	.	.	.	8ff#'>\	.
4E\	.	4e\	.	4g#X/	.	8dd'>\	.
.	.	.	.	.	.	8b'>\J	.
=18	=18	=18	=18	=18	=18	=18	=18
4AA/	.	4c#\	.	4a/	.	4a'>\	.
!	!LO:MO:null:mod=!LO&colon;DY&colon;ed=brack	!	!	!	!	!	!
!	!	!	!	!	!	!	!
!	!LO:MO:null:mod=fz	!	!	!	!	!	!
(>2C#/	.	(>2e#X\	fz	(>2g#X [<2c#/	fz	(>4.ccc#\	fz
!	!LO:MO:null:mod=>	!	!	!	!	!	!LO:HP:b:Bi:t=dim&colon;
.	.	.	>	.	>	8bb\	>
=19	=19	=19	=19	=19	=19	=19	=19
!	!LO:MO:null:mod=!LO&colon;DY&colon;ed=brack	!	!	!	!	!	!
!	!	!	!	!	!	!	!
!	!LO:MO:null:mod=p	!	!	!LO:S:s=1:note:problem=note-level slur	!	!	!
4F#\)	.	4f#\)	p	4a) 4c#/]	p	8aa\L)	.
.	.	.	.	.	.	(>8ee#X\	p
4D\	.	4f#\	.	4b/	.	8gg#X\)	.
.	.	.	.	.	.	8ff#'>\	.
4E\	.	4e\	.	4g#X/	.	8dd'>\	.
.	.	.	.	.	.	8b'>\J	.
=20	=20	=20	=20	=20	=20	=20	=20
4A\	.	4c#\	.	4a/	.	4a\	.
4AA/	.	4r	.	4r	.	4r	.
4r	.	4r	.	4r	.	4r	.
=21:|!|:	=21:|!|:	=21:|!|:	=21:|!|:	=21:|!|:	=21:|!|:	=21:|!|:	=21:|!|:
*>B	*	*>B	*	*>B	*	*>B	*
8.AA/L	f	2.r	.	2.r	.	2.r	.
16GG#X/Jk	.	.	.	.	.	.	.
4AA/	.	.	.	.	.	.	.
4BB/	.	.	.	.	.	.	.
=22	=22	=22	=22	=22	=22	=22	=22
!	!	!	!	!	!LO:DY:b:rj	!	!LO:DY:b:rj
!	!	!	!	!	!LO:MO:null:mod=.	!	!
[<2.Cn/	.	2.r	.	8.r	f	8.cn/L	f
!	!	!	!	!	!LO:MO:null:mod=f	!	!
.	.	.	.	16B/	.	16d/Jk	.
.	.	.	.	4cn/	.	4e/	.
.	.	.	.	4d/	.	4fn/	.
=23	=23	=23	=23	=23	=23	=23	=23
4C/]	.	2.r	.	4e/	.	4g/	.
(<4C#X/	sf	.	.	(<4g/	sf	(<4b-X/	sf
!	!	!	!	!	!	!LO:N:vis=4.	!
4D/)	.	.	.	4fn/)	.	4a/)	.
=24	=24	=24	=24	=24	=24	=24	=24
(>4D#X\	sf	4r	.	(<4a/	sf	(>4ccn\	sf
4E\)	.	4r	.	4g/)	.	4b\)	.
!	!	!	!LO:MO:null:mod=!LO&colon;DY&colon;ed=brack	!	!	!	!
!	!	!	!	!	!	!	!
!	!	!	!LO:MO:null:mod=sf	!	!	!	!
4F#'>\	sf	4e\	.	4a#X/	sf	4ee'>\	sf
=25	=25	=25	=25	=25	=25	=25	=25
!	!	!	!LO:MO:null:mod=!LO&colon;DY&colon;ed=brack	!	!	!	!
!	!	!	!	!	!	!	!
!	!	!	!LO:MO:null:mod=sf	!	!	!	!
8.BB/L	sf	4e\	.	4b/	sf	4dd'>\	sf
16AA#X/Jk	.	.	.	.	.	.	.
4BB/	.	4r	.	4r	.	4r	.
4C#/	.	4r	.	4r	.	4r	.
!!LO:LB:g=original
=26	=26	=26	=26	=26	=26	=26	=26
[>2.D\	.	2.r	.	8.r	.	8.d/L	f
!	!	!	!	!	!LO:DY:b:rj	!	!
.	.	.	.	16c#/	f	16e/Jk	.
.	.	.	.	4d/	.	4f#/	.
.	.	.	.	4e/	.	4g/	.
=27	=27	=27	=27	=27	=27	=27	=27
4D\]	.	4r	.	4f#/	.	4a\	.
!	!LO:MO:null:mod=!LO&colon;DY&colon;ed=brack	!	!	!	!LO:MO:null:mod=!LO&colon;DY&colon;ed=brack	!	!
!	!	!	!	!	!	!	!
!	!LO:MO:null:mod=sf	!	!	!	!LO:MO:null:mod=sf	!	!
(>4F#\	.	2d\	sf	(<4a/	.	(>4ccn\	sf
4G\)	.	.	.	4g/)	.	4b\)	.
=28	=28	=28	=28	=28	=28	=28	=28
!	!LO:MO:null:mod=!LO&colon;DY&colon;ed=brack	!	!	!	!LO:MO:null:mod=!LO&colon;DY&colon;ed=brack	!	!
!	!	!	!	!	!	!	!
!	!LO:MO:null:mod=sf	!	!	!	!LO:MO:null:mod=sf	!	!
(>4G#X\	.	2e\	sf	(>4b\	.	(>4dd\	sf
4A\)	.	.	.	4a\)	.	4cc#X\	.
!	!LO:MO:null:mod=!LO&colon;DY&colon;ed=brack	!	!LO:MO:null:mod=!LO&colon;DY&colon;ed=brack	!	!LO:MO:null:mod=!LO&colon;DY&colon;ed=brack	!	!
!	!	!	!	!	!	!	!
!	!LO:MO:null:mod=sf	!	!LO:MO:null:mod=sf	!	!LO:MO:null:mod=sf	!	!
4A#X\	.	[>4f#\	.	4cc#\	.	4ee\)	sf
=29	=29	=29	=29	=29	=29	=29	=29
!	!LO:MO:null:mod=!LO&colon;DY&colon;ed=brack	!	!	!	!	!	!
!	!	!	!	!	!	!	!
!	!LO:MO:null:mod=f	!	!LO:MO:null:mod=f	!	!	!	!
8.B\L	.	8.f#\L]	.	[>2.b\	f	2.dd\	f
!	!	!	!LO:MO:null:mod=.	!	!	!	!
16c#\Jk	.	16e\Jk	f	.	.	.	.
4B\	.	4d\	.	.	.	.	.
4A\	.	4c#\	.	.	.	.	.
=30	=30	=30	=30	=30	=30	=30	=30
!	!LO:MO:null:mod=>	!	!	!	!	!	!
2.G\	.	2.B/	>	8.b\L]	>	2.ee#X\	>
!	!	!	!LO:MO:null:mod=.	!	!LO:MO:null:mod=.	!	!LO:MO:null:mod=.
.	.	.	>	16dd\Jk	>	.	>
.	.	.	.	4cc#\	.	.	.
!	!	!	!LO:MO:null:mod=.	!	!LO:MO:null:mod=.	!	!LO:MO:null:mod=.
.	.	.	]	4b\	]	.	]
=31	=31	=31	=31	=31	=31	=31	=31
!LO:TX:a:Bi:t=1.:mod=	!LO:MO:null:mod=p	!	!	!	!	!	!
[>2.F#\	.	(>4c#/	p	4a#X\	p	(>8.ff#\L	p
.	.	.	.	.	.	16gg\Jk	.
.	.	2A#X/	.	(>[<2f#/	.	4ff#\	.
.	.	.	.	.	.	4ee\)	.
=32	=32	=32	=32	=32	=32	=32	=32
!LO:TX:a:Bi:t=2.:mod=	!	!	!	!	!	!	!
2.F#\_>	.	8.B/L	.	2f#/]	.	(>8.dd\L	.
.	.	16c#/Jk	.	.	.	16cc#\Jk	.
.	.	2d\)	.	.	.	2b\)	.
.	.	.	.	4e#X/	.	.	.
=33	=33	=33	=33	=33	=33	=33	=33
!LO:TX:a:Bi:t=3.:mod=	!	!	!	!	!	!	!
2.F#\_>	.	(>4c#\	.	[<2.f#/	.	(>8.a#X\L	.
.	.	.	.	.	.	16gg\Jk	.
.	.	2A#X/	.	.	.	4ff#\	.
.	.	.	.	.	.	4ee\)	.
=34	=34	=34	=34	=34	=34	=34	=34
!LO:TX:a:Bi:t=4.:mod=	!	!	!	!	!	!	!
2.F#\_>	.	8.B/L	.	2f#/])	.	(>8.dd\L	.
.	.	16c#/Jk	.	.	.	16cc#\Jk	.
.	.	2d\)	.	.	.	2b\)	.
.	.	.	.	4e#X/	.	.	.
=35	=35	=35	=35	=35	=35	=35	=35
!LO:TX:a:Bi:t=5.:mod=	!	!	!	!	!	!	!
2.F#\_>	.	(>4c#\	.	(>[<2.f#/	.	(>8.a#X\L	.
.	.	.	.	.	.	16gg\Jk	.
.	.	2A#X/	.	.	.	4ff#\	.
.	.	.	.	.	.	4ee\)	.
=36	=36	=36	=36	=36	=36	=36	=36
!LO:TX:a:Bi:t=6.:mod=	!	!	!	!	!	!	!
2.F#\_>	.	8.B\L	.	2f#/]	.	8.dd\L	.
.	.	16c#\Jk	.	.	.	16cc#\Jk	.
.	.	4d\)	.	.	.	4b\	.
.	.	4e^<\	.	4g^</	.	(>[>4cc#^<\	.
=37	=37	=37	=37	=37	=37	=37	=37
!LO:TX:a:Bi:t=7.:mod=	!	!	!	!	!	!	!
2.F#\_>	.	(>2.d\	.	2f#/	.	4cc#\]	.
.	.	.	.	.	.	[>2b\	.
.	.	.	.	4e#X/	.	.	.
=38	=38	=38	=38	=38	=38	=38	=38
!	!	!LO:TX:b:Bi:t=dim_:problem=dynamics with extention lines:mod=	!	!	!	!	!
!	!	!	!LO:HP:b:Bi:t=dim:ext=ud	!	!	!	!
!LO:TX:a:Bi:t=8.:mod=	!LO:MO:null:mod=>	!	!	!	!	!	!
2.F#\_>	.	2c#\	>	2en/	>	4b\]	>
.	.	.	.	.	.	4a#X\)	.
!	!	!	!LO:MO:null:mod=.	!	!	!	!
.	.	4cn\	]	4d#X/)	.	(>[>4an\	.
=39	=39	=39	=39	=39	=39	=39	=39
!LO:TX:a:t=P:problem=w źródle brak fragmentu ligatury	!	!	!	!	!	!	!
!LO:TX:a:Bi:t=9.:mod=	!	!	!	!	!	!	!
2.F#\_>	.	[>2.B\	.	(>[>2.dn/	.	8.a\L]	.
.	.	.	.	.	.	16g#X/Jk	.
.	.	.	.	.	.	4gn/	.
.	.	.	.	.	.	4f#/	.
!!LO:LB:g=original
=40	=40	=40	=40	=40	=40	=40	=40
!	!	!LO:TX:a:t=P:problem=w źródle brak zakończenia ligatury	!	!	!	!LO:TX:a:t=P:problem=w źródle brak zakończenia łuku	!
!	!	!	!	!LO:TX:a:t=P:problem=w źródle ligatura kończy się obrócona w drugą strone	!	!	!
!LO:TX:a:Bi:t=10.:mod=	!	!	!	!	!	!	!
2.F#\_>	.	8.B/L])	.	8.d/L]	.	[<2.e#X/)	pp
.	.	16B/Jk	pp	16d/Jk	pp	.	.
.	.	4A#X/	.	4c#/	.	.	.
.	.	4G#X/	.	4B/	.	.	.
=41	=41	=41	=41	=41	=41	=41	=41
8.F#\L]	.	4F#/	.	4A#X/)	.	4e#/]	.
16E#X\Jk	f	.	.	.	.	.	.
[>2F#\	.	4r	.	4r	.	4r	.
!	!	!	!LO:DY:b:rj	!	!LO:DY:b:rj	!	!LO:DY:b:rj
.	.	(>4d^<\	f	(<4e#X^</	f	(>4b^<\	f
=42	=42	=42	=42	=42	=42	=42	=42
8.F#\L]	.	4c#\)	.	4f#/)	.	4a#X\)	.
16E#X\Jk	.	.	.	.	.	.	.
[>2F#\	.	4r	.	4r	.	4r	.
.	.	(>4e#X\	.	(>4b\	.	(>4dd^<\	.
=43	=43	=43	=43	=43	=43	=43	=43
8.F#\L]	.	4f#\)	.	4a#X\)	.	4cc#\)	.
16E#X\Jk	.	.	.	.	.	.	.
!LO:TX:b:Bi:t=dim_:problem=dynamics with extention lines:mod=	!	!	!	!	!	!	!
!	!LO:HP:b:Bi:t=dim:ext=ud	!	!	!	!	!	!
[>2F#\	>	4r	.	4r	.	4r	.
!	!	!	!	!	!	!LO:TX:b:Bi:t=dim_:problem=dynamics with extention lines:mod=	!
!	!	!	!	!	!	!	!LO:HP:b:Bi:t=dim:ext=ud
!	!	!LO:TX:b:Bi:t=dim_:problem=dynamics with extention lines:mod=	!	!	!	!	!
!	!	!	!LO:HP:b:Bi:t=dim:ext=ud	!	!	!	!
!	!	!LO:SIC:v:s=4g#^<\	!	!	!	!	!
.	.	4a^<\	>	(>4ee#X^<\	>	(>4gg#X^<\	>
=44	=44	=44	=44	=44	=44	=44	=44
8.F#\L]	.	4a#X\	.	4ff#\)	.	4ff#\)	.
16E#X\Jk	.	.	.	.	.	.	.
!	!	!	!	!	!	!	!LO:MO:null:mod=.
[>2F#\	.	4r	.	4r	.	4r	]
!	!	!	!LO:MO:mod=]]	!	!LO:MO:null:mod=]]	!	!LO:MO:null:mod=]]
.	]]	4B/	]	4d/	.	4e#X/	.
=45	=45	=45	=45	=45	=45	=45	=45
2.F#\_>	p	[<2.A#X/	p	[<2.c#/	p	[<2.f#/	p
=46	=46	=46	=46	=46	=46	=46	=46
2.F#\_>	.	2.A#/]	.	2.c#/_<	.	2.f#/_<	.
=47	=47	=47	=47	=47	=47	=47	=47
*	*	*	*	*	*^	*	*
!	!	!LO:TX:b:Bi:t=cres_:problem=dynamics with extention lines:mod=	!LO:TX:b:Bi:t=cres_:problem=dynamics with extention lines:mod=	!	!	!LO:TX:b:Bi:t=cres_:problem=dynamics with extention lines:mod=	!	!
!	!LO:MO:null:mod=<	!	!LO:HP:b:Bi:t=cres:ext=ud	!	!LO:HP:b:Bi:t=cres:ext=ud	!	!	!LO:HP:b:Bi:t=cres:ext=ud
2.F#\_>	.	[<2.An/	<	2.c#/_<	<	.	8.f#/L]	<
.	.	.	.	.	.	.	16e#X/Jk	.
.	.	.	.	.	.	.	4f#/	.
.	.	.	.	.	.	.	4a/	.
=48	=48	=48	=48	=48	=48	=48	=48	=48
2.F#\]	.	2.A/_<	.	2.c#/_<	.	.	8.cc#\L	.
.	.	.	.	.	.	.	16b#X\Jk	.
.	.	.	.	.	.	.	4cc#\	.
!	!LO:MO:null:mod=[[	!	!	!	!LO:MO:null:mod=[[	!	!	!LO:MO:mod=[[
.	.	.	[[	.	.	.	4ff#\	[
=49	=49	=49	=49	=49	=49	=49	=49	=49
!	!LO:MO:null:mod=!LO&colon;DY&colon;ed=brack	!	!	!	!	!	!	!
!	!	!	!	!	!	!	!	!
!	!LO:MO:null:mod=f	!	!	!	!LO:MO:null:mod=f	!LO:MO:null:mod=.	!	!
2.E\	.	2.A/]	f	2.c#/]	.	f	8.gg\L	f
.	.	.	.	.	.	.	16ff#\K	.
.	.	.	.	.	.	.	8.ee\	.
.	.	.	.	.	[	.	16dd\K	.
.	.	.	.	.	.	.	8.cc#\	.
.	.	.	.	.	.	.	16b\Jk	.
*	*	*	*	*	*v	*v	*	*
=50	=50	=50	=50	=50	=50	=50	=50
2.AA/	.	(>2.c#\	.	(>2.g [<2.A/	.	8.a/L	.
.	.	.	.	.	.	16g#X/K	.
.	.	.	.	.	.	8.b/	.
.	.	.	.	.	.	16a/K	.
.	.	.	.	.	.	8.gn/	.
.	.	.	.	.	.	16e/Jk	.
=51	=51	=51	=51	=51	=51	=51	=51
!	!LO:MO:null:mod=!LO&colon;DY&colon;ed=brack	!LO:TX:t=P:problem=mixed beam	!	!	!	!	!
!	!	!	!	!	!	!	!
!	!LO:MO:null:mod=ff	!	!	!LO:S:s=1:note:problem=note-level slur	!	!	!
8.DD/L	.	8.d\L)	ff	8.f#L) 8.A/]	ff	8.d/L	ff
16EE/Jk	.	16E/Jk	.	16e/Jk	.	16e/Jk	.
4FF#/	.	4F#/	.	4f#/	.	4f#/	.
4GG/	.	4G/	.	4g/	.	4g/	.
=52	=52	=52	=52	=52	=52	=52	=52
2AA/	.	2A/	.	2a\	.	2a\	.
8.BB/L	.	8.B/L	.	8.b\L	.	8.b\L	.
16C#/Jk	.	16c#/Jk	.	16cc#\Jk	.	16cc#\Jk	.
=53	=53	=53	=53	=53	=53	=53	=53
8.D/L	.	8.d\L	.	8.dd\L	.	8.dd\L	.
16C#/Jk	.	16e\Jk	.	16a#X\Jk	.	16ee\Jk	.
4BB/	.	4d\	.	4b\	.	4ff#\	.
4E\	.	4b\	.	4dd 4e/	.	4gg#X\	.
!!LO:LB:g=original
=54	=54	=54	=54	=54	=54	=54	=54
4AA/	.	4a\	.	4cc# 4e/	.	2aa\	fz
4r	.	4r	.	4r	.	.	.
4r	.	4r	.	4r	.	8.bb\L	>
.	.	.	.	.	.	16ccc#\Jk	]]
=55	=55	=55	=55	=55	=55	=55	=55
4r	.	2.r	.	4r	.	(>8.ddd\L	p
.	.	.	.	.	.	16eee\Jk)	.
4r	.	.	.	4r	.	(>8.fff#\L	.
.	.	.	.	.	.	16ddd\Jk)	.
!	!LO:DY:b:rj	!	!	!	!LO:DY:b:rj	!	!
(>4A#X^<\	p	.	.	[<4f#^</	p	(>8.ccc#\L	.
.	.	.	.	.	.	16eee\Jk)	.
=56	=56	=56	=56	=56	=56	=56	=56
4B\)	.	2.r	.	4f#/]	.	(>8.ddd\L	.
.	.	.	.	.	.	16bb\Jk)	.
(>4F#^<\	.	.	.	(<2d^</	.	(>8.aa\L	.
.	.	.	.	.	.	16cccn\Jk)	.
4G\)	.	.	.	.	.	(>8.bb\L	.
.	.	.	.	.	.	16gg\Jk)	.
=57	=57	=57	=57	=57	=57	=57	=57
(>4D#X^<\	.	4r	.	2B^</)	.	(>8.ff#\L	.
.	.	.	.	.	.	16aa\Jk)	.
4E\)	.	4r	.	.	.	(>8.gg\L	.
.	.	.	.	.	.	16ee\Jk)	.
!	!	!	!LO:MO:null:mod=!LO&colon;DY&colon;ed=brack	!	!	!	!
!	!	!	!	!	!	!	!
!	!	!	!LO:MO:null:mod=p	!	!	!	!
4G\	.	4B/	.	4e/	.	(>8.b\L	.
.	.	.	.	.	.	16ee\Jk)	.
=58	=58	=58	=58	=58	=58	=58	=58
4A\	.	4A/	.	4g 4A/	.	(>8.dd\L	.
.	.	.	.	.	.	16cc#\Jk)	.
4AA/	.	4e\	.	4g 4A/	.	(>8.b\L	.
!	!	!	!	!	!	!LO:SIC:s=16aJ)	!
.	.	.	.	.	.	16a\K)	.
!LO:SIC:s=4AA	!	!	!	!	!	!LO:SIC:s=(8.bL	!
4AA'>/	.	4e\	.	4g 4A/	.	(>8.b\	.
.	.	.	.	.	.	16cc#\Jk)	.
=59	=59	=59	=59	=59	=59	=59	=59
!	!LO:MO:null:mod=!LO&colon;DY&colon;ed=brack	!	!	!	!	!	!
!	!	!	!	!	!	!	!
!	!LO:MO:null:mod=mf	!	!	!	!	!	!
4D\	.	4d\	mf	4f# 4A/	mf	8.dd\L	mf
.	.	.	.	.	.	(>16ff#\Jk	.
4r	.	4r	.	4r	.	(>[>2aa^<\)	.
(>4D#X\	.	4cn/	.	4f#/	.	.	.
=60	=60	=60	=60	=60	=60	=60	=60
4E\)	.	2B/	.	2e/	.	8.aa\L]	.
.	.	.	.	.	.	16gg\Jk)	.
4G\	.	.	.	.	.	(>8.b\L	.
.	.	.	.	.	.	16ee\Jk)	.
4A\	.	4e\	.	4g 4A/	.	8.dd\L	.
.	.	.	.	.	.	16cc#\Jk	.
=61	=61	=61	=61	=61	=61	=61	=61
4D\	.	4d\	.	4f# 4A/	.	(>8.dd\L	.
.	.	.	.	.	.	16ff#\Jk)	.
.	.	.	.	.	.	16qqff#/	.
!	!	!	!	!	!	!	!LO:DY:b:rj
4r	.	4r	.	4r	.	(>[>2aa^<\	f
(>4D#X\	f	4cn/	f	4f#/	f	.	.
=62	=62	=62	=62	=62	=62	=62	=62
4E\)	.	2B/	.	2e/	.	8.aa\L]	.
.	.	.	.	.	.	16gg\Jk)	.
4G\	.	.	.	.	.	8.b\L	.
.	.	.	.	.	.	16ee\Jk	.
.	.	.	.	.	.	16qqee/	.
4A\	.	4e\	.	4g 4A/	.	8.dd\L	.
.	.	.	.	.	.	16cc#\Jk	.
=63	=63	=63	=63	=63	=63	=63	=63
!!LO:TX:a:Bi:t=1ma:mod=1.
*>B1	*	*>B1	*	*>B1	*	*>B1	*
4D\	.	4d\	.	4f# 4A/	.	4dd\	.
4DD/	.	4r	.	4r	.	4r	.
!	!	!	!	!	!	!LO:TX:b:Bi:t=fine:mod=	!
4r	.	4r	.	4r	.	4r	.
!!LO:TX:a:B:rj:t=:mod=Fine
=64:|!	=64:|!	=64:|!	=64:|!	=64:|!	=64:|!	=64:|!	=64:|!
!!LO:TX:a:Bi:t=2da:mod=2.
*>B2	*	*>B2	*	*>B2	*	*>B2	*
4D/	.	4d\	.	4f# 4A/	.	4dd\	.
4DD/	.	4r	.	4r	.	4r	.
4r	.	4r	.	4r	.	8.b\L	p
.	.	.	.	.	.	16ccn\Jk	.
=65	=65	=65	=65	=65	=65	=65	=65
*>C	*	*>C	*	*>C	*	*>C	*
2.r	.	2.r	.	2.r	.	4dd\	.
.	.	.	.	.	.	4r	.
.	.	.	.	.	.	8.b\L	.
!	!	!	!	!	!	!LO:TX:t=P:problem=w źródle skreślony takt [za skreślonym taktem podwójna kreska taktowa, uwzględniona w kodzie]	!
.	.	.	.	.	.	16ccn\Jk	.
!!LO:PB:g=original
=66||	=66||	=66||	=66||	=66||	=66||	=66||	=66||
*k[f#cn]	*	*k[f#cn]	*	*k[f#cn]	*	*k[f#cn]	*
*mk[f#]	*	*mk[f#]	*	*mk[f#]	*	*mk[f#]	*
.	.	.	.	.	.	16qqee/	.
!LO:MO:mod=!LO&colon;TX&colon;i&colon;t=pizz.	!	!LO:MO:mod=!LO&colon;TX&colon;i&colon;t=pizz.	!	!LO:MO:mod=!LO&colon;TX&colon;i&colon;t=pizz.	!	!	!
!LO:TX:b:Bi:t=pizz&colon;	!	!LO:TX:b:Bi:t=pizz&colon;	!	!LO:TX:b:Bi:t=pizz&colon;	!	!	!
4G\	.	4B/	.	4d/	.	8.dd\L	.
.	.	.	.	.	.	16cc#X\K	.
4G\	.	4B/	.	4d/	.	8.dd\	.
.	.	.	.	.	.	16gg\Jk	.
4G\	.	4B/	.	4d/	.	4bb^<\	.
=67!|:	=67!|:	=67!|:	=67!|:	=67!|:	=67!|:	=67!|:	=67!|:
*>D	*	*>D	*	*>D	*	*>D	*
4G\	.	4B/	.	4d/	.	8.r	.
.	.	.	.	.	.	16a#X\KL	.
4G\	.	4B/	.	4d/	.	8.b\	.
.	.	.	.	.	.	16cc\Jk	.
4G\	.	4B/	.	4d#X/	.	4gg^<\	.
=68	=68	=68	=68	=68	=68	=68	=68
4G\	.	4c\	.	4e/	.	8.r	.
.	.	.	.	.	.	16g#X\KL	.
4G\	.	4c\	.	4e/	.	8.a\	.
.	.	.	.	.	.	16cc\Jk	.
4G\	.	4c\	.	4e/	.	4ee^<\	.
=69	=69	=69	=69	=69	=69	=69	=69
4G\	.	4c\	.	4e-X/	.	8.r	.
.	.	.	.	.	.	16g#X\KL	.
4G\	.	4c\	.	4e-/	.	8.a\	.
.	.	.	.	.	.	16cc\Jk	.
4G\	.	4c\	.	4a/	.	4ee-X^<\	.
=70	=70	=70	=70	=70	=70	=70	=70
4F#\	.	4d 4c\	.	4a/	.	8.r	.
.	.	.	.	.	.	16g#X\KL	.
4F#\	.	4d 4c\	.	4a/	.	8.a\	.
.	.	.	.	.	.	16cc\Jk	.
4F#\	.	4d 4c\	.	4a/	.	4dd^<\	.
=71	=71	=71	=71	=71	=71	=71	=71
4G\	.	4d 4B\	.	4g/	.	8.r	.
.	.	.	.	.	.	(>16b\	.
4G\	.	4e 4B\	.	4g/	.	4gg\)	.
!	!LO:MO:mod=fp	!	!	!	!	!	!
4C/	sf	4A#X/	fp	4e 4G/	fp	8.e/L	fp
.	.	.	.	.	.	16f#/Jk	.
=72	=72	=72	=72	=72	=72	=72	=72
4BB/	.	4B/	.	4e 4G/	.	[>4g/	.
4BB/	.	4e 4G/	.	4r	.	8.g/L]	.
.	.	.	.	.	.	16a/K	.
4BB/	.	4d#X 4A/	.	4r	.	8.f#/	.
.	.	.	.	.	.	16g/Jk	.
=73	=73	=73	=73	=73	=73	=73	=73
!!LO:TX:a:Bi:t=1a:mod=1.
*>D1	*	*>D1	*	*>D1	*	*>D1	*
4E\	.	4e 4G/	.	8.r	.	4e/	.
!	!	!	!	!LO:MO:mod=!LO&colon;TX&colon;i&colon;t=arco	!	!	!
!	!	!	!	!LO:TX:a:Bi:t=arco	!	!	!
.	.	.	.	16b\	.	.	.
4r	.	4r	.	8.ee\L	.	4r	.
.	.	.	.	16dd\K	.	.	.
4F#\	.	4dn 4c\	.	8.a\	.	4r	.
.	.	.	.	16a#X\Jk	.	.	.
=74	=74	=74	=74	=74	=74	=74	=74
4G\	.	4d 4B\	.	4b\	.	8.r	.
.	.	.	.	.	.	16cc#X\KL	.
4G\	.	4d 4B\	.	4r	.	8.dd\	.
.	.	.	.	.	.	16gg\Jk	.
4G\	.	4d 4B\	.	4r	.	4bb\	.
!!LO:LB:g=original
=75:|!	=75:|!	=75:|!	=75:|!	=75:|!	=75:|!	=75:|!	=75:|!
!!LO:TX:a:Bi:t=2da:mod=2.
*>D2	*	*>D2	*	*>D2	*	*>D2	*
4E\	.	4e 4G/	.	2.r	.	4e/	.
4EE/	.	4r	.	.	.	4r	.
4r	.	4r	.	.	.	4r	.
=76!|:	=76!|:	=76!|:	=76!|:	=76!|:	=76!|:	=76!|:	=76!|:
*>E	*	*>E	*	*>E	*	*>E	*
*	*	*^	*	*	*	*	*
!	!	!LO:MO:null:mod=!LO&colon;TX&colon;i&colon;t=arco	!	!	!	!	!	!
!	!LO:MO:null:mod=!LO&colon;DY&colon;ed=brack	!	!	!LO:MO:null:mod=!LO&colon;DY&colon;ed=brack	!	!	!	!
!LO:MO:mod=!LO&colon;TX&colon;i&colon;t=arco	!	!LO:TX:a:Bi:t=8va Col Baſso:problem=fragment zapisany jako znaki repetycji:mod=	!	!	!	!	!	!
!LO:TX:a:Bi:t=arco	!LO:MO:null:mod=f	!	!LO:TX:a:t=P:problem=w kodzie rozszerzony spin dla zapisu alternatywnej wersji początku i końca fragmentu '8va Col Baſso' dopisanej innym atramentem	!LO:MO:null:mod=f	!	!	!	!
8.EE/L	.	8.E/Lyy	4E/yyyy	.	4r	.	4r	.
16DD#X/K	.	16D#X/Kyy	.	.	.	.	.	.
8.EE/	.	8.E/yy	4D#/yyyy	.	4r	.	4r	.
16GG#X/Jk	.	16G#X/Jkyy	.	.	.	.	.	.
!	!	!	!	!	!	!LO:DY:b:rj	!	!LO:DY:b:rj
4BB/	.	4B/yy	4ryyyy	.	4ee 4e/	f	4gg#X 4b 4e/	f
=77	=77	=77	=77	=77	=77	=77	=77	=77
8.EE/L	.	8.E/Lyy	2.ryyyy	.	4r	.	4r	.
16DD#X/K	.	16D#X/Kyy	.	.	.	.	.	.
8.EE/	.	8.E/yy	.	.	4r	.	4r	.
16AA/Jk	.	16A/Jkyy	.	.	.	.	.	.
4C/	.	4c/yy	.	.	4cc 4e 4A/	sf	4aa 4cc 4e/	sf
=78	=78	=78	=78	=78	=78	=78	=78	=78
8.EE/L	.	8.E/Lyy	2.ryyyy	.	4r	.	4r	.
16DD#X/K	.	16D#X/Kyy	.	.	.	.	.	.
8.EE/	.	8.E/yy	.	.	4gg#X 4b 4e\	.	4bb 4dd 4e\	.
16GG#X/K	.	16G#X/Kyy	.	.	.	.	.	.
8.BB/	.	8.B/yy	.	.	4gg# 4b 4e\	.	4bb 4dd 4e\	.
16E/Jk	.	16e/Jkyy	.	.	.	.	.	.
=79	=79	=79	=79	=79	=79	=79	=79	=79
8.C/L	.	8.c/Lyy	2.ryyyy	.	4aa 4cc 4e\	.	4aa 4cc 4e\	.
16BB/K	.	16B/Kyy	.	.	.	.	.	.
8.AA/	.	8.A/yy	.	.	4r	.	4r	.
16GG/K	.	16G/Kyy	.	.	.	.	.	.
8.FF#/	.	8.F#/yy	.	.	4r	.	4r	.
16EE/Jk	.	16E/Jkyy	.	.	.	.	.	.
=80	=80	=80	=80	=80	=80	=80	=80	=80
8.DD/L	.	8.D/Lyy	2.ryyyy	.	4r	.	4r	.
16CC#X/K	.	16C#X/Kyy	.	.	.	.	.	.
8.DD/	.	8.D/yy	.	.	4r	.	4r	.
16FF#/Jk	.	16F#/Jkyy	.	.	.	.	.	.
!	!	!	!	!	!LO:TX:t=P:problem=w źródle kasownik 4ccn dopisany ołówkiem	!	!	!
4AA/	.	4A/yy	.	.	4cc 4d/	sf	4ff# 4a 4d/	sf
=81	=81	=81	=81	=81	=81	=81	=81	=81
8.DD/L	.	8.D/Lyy	2.ryyyy	.	4r	.	4r	.
!LO:SIC:v:s=16CC#/K	!	!LO:SIC:v:s=16C#/Kyy	!	!	!	!	!	!
16CC/K	.	16C/Kyy	.	.	.	.	.	.
8.DD/	.	8.D/yy	.	.	4r	.	4r	.
16GG/Jk	.	16G/Jkyy	.	.	.	.	.	.
4BB/	.	4B/yy	.	.	4b 4d/	sf	4gg 4b 4d/	sf
=82	=82	=82	=82	=82	=82	=82	=82	=82
8.DD/L	.	8.D/Lyy	4D/yyyy	.	4r	.	4r	.
16CC#X/K	.	16C#X/Kyy	.	.	.	.	.	.
8.DD/	.	8.D/yy	16C#X/LLyyyy	.	4ff# 4a 4d\	.	4aa 4cc 4d\	.
.	.	.	16D/yyyy	.	.	.	.	.
.	.	.	16F#/yyyy	.	.	.	.	.
16FF#/K	.	16F#/Kyy	16A/JJyyyy	.	.	.	.	.
8.AA/	.	8.A/yy	4d/yyyy	.	4ff# 4a 4d\	.	4aa 4cc 4d\	.
16D/Jk	.	16d/Jkyy	.	.	.	.	.	.
*	*	*v	*v	*	*	*	*	*
=83	=83	=83	=83	=83	=83	=83	=83
!	!	!	!	!	!	!LO:N:vis=8	!
4GG/	.	4G/	.	4gg 4b 4d\	.	8.ggL 8.b 8.d\	.
.	.	.	.	.	.	16cc#X\K	.
4r	.	4r	.	4r	.	8.dd\	.
.	.	.	.	.	.	16gg\Jk	.
4r	.	4r	.	4r	.	(>[>4bb^<\	.
=84	=84	=84	=84	=84	=84	=84	=84
2.r	.	8.B\L	p	(>2.dd#X\	p	2bb\]	p
.	.	16A#X\K	.	.	.	.	.
.	.	8.B\	.	.	.	.	.
.	.	16c#X\K	.	.	.	.	.
.	.	8.d#X\	.	.	.	4aa\	.
.	.	16B\Jk	.	.	.	.	.
=85	=85	=85	=85	=85	=85	=85	=85
2.r	.	(>2e\	.	4ee\)	.	8.gg\L)	.
.	.	.	.	.	.	16ff#\K	.
.	.	.	.	[>2b\	.	8.gg\	.
.	.	.	.	.	.	16ee\K	.
.	.	4f#\	.	.	.	8.dd#X\	.
.	.	.	.	.	.	16ff#\Jk	.
!!LO:LB:g=original
=86	=86	=86	=86	=86	=86	=86	=86
2.r	.	2g\	<	(>2.b\]	<	8.ee\L	<
.	.	.	.	.	.	16dd#X\K	.
.	.	.	.	.	.	8.ee\	.
.	.	.	.	.	.	16ffn\K	.
!	!	!	!	!	!	!	!LO:MO:null:mod=.
.	.	4g#X\	[[	.	.	8.ee\	[
!	!	!	!	!	!	!	!LO:MO:null:mod=[
.	.	.	.	.	[	16ddn\Jk	.
=87	=87	=87	=87	=87	=87	=87	=87
2.r	.	2a\	>	2cc\	>	8.cc\L	>
.	.	.	.	.	.	16ee\K	.
.	.	.	.	.	.	8.dd#X\	.
!	!	!	!	!	!	!	!LO:MO:null:mod=.
.	.	.	.	.	.	16ee\K	]
!	!	!	!	!	!LO:MO:mod=]]	!	!
.	.	4gn\)	]]	4b\)	]	8.b\	.
!	!	!	!	!	!	!	!LO:MO:null:mod=]
.	.	.	.	.	.	16ee\Jk	.
=88	=88	=88	=88	=88	=88	=88	=88
2.r	.	(>4fn\	.	(<4a/	.	8ee\	.
.	.	.	.	.	.	4dd\	.
.	.	4e\	.	4g/	.	.	.
.	.	.	.	.	.	4cc\	.
.	.	4d\	.	4fn/	.	.	.
.	.	.	.	.	.	[>8b\	.
=89	=89	=89	=89	=89	=89	=89	=89
4r	.	4c\	.	4e/	.	8.b\L]	.
.	.	.	.	.	.	16a\Jk	.
4r	.	2B\	.	2d/)	.	2g#Xt>/	.
!	!LO:MO:null:mod=!LO&colon;DY&colon;ed=brack	!	!	!	!	!	!
!	!	!	!	!	!	!	!
!	!LO:MO:null:mod=p	!	!	!	!	!	!
4E\	.	.	.	.	.	.	.
.	.	.	.	.	.	16qqf#X/LL	.
.	.	.	.	.	.	16qqg#/JJ	.
=90	=90	=90	=90	=90	=90	=90	=90
8.AA/L	.	[<2.A/)	.	[>2.c/	.	4a/	.
16GG#X/K	.	.	.	.	.	.	.
8.AA/	.	.	.	.	.	4r	.
16C/Jk	.	.	.	.	.	.	.
[>4E\	.	.	.	.	.	8.A/L	.
.	.	.	.	.	.	16c/Jk	.
=91	=91	=91	=91	=91	=91	=91	=91
8.E\L]	.	2.A/]	.	2.c/]	.	2e/	.
16BB\K	.	.	.	.	.	.	.
8.C\	.	.	.	.	.	.	.
16E\Jk	.	.	.	.	.	.	.
[>4A\	.	.	.	.	.	8.c/L	.
.	.	.	.	.	.	16e/Jk	.
=92	=92	=92	=92	=92	=92	=92	=92
2A\]	.	2c\	.	2e/	.	8.a\L	.
.	.	.	.	.	.	16g#X\K	.
.	.	.	.	.	.	8.a\	.
.	.	.	.	.	.	16cc\Jk	.
!LO:SIC:s=(4A^	!LO:MO:null:mod=<	!LO:SIC:s=[4c^	!	!	!	!	!
(>4A\	.	[>4c\	<	[<4a^>/	<	4ee\	.
=93	=93	=93	=93	=93	=93	=93	=93
2G\)	.	2c\]	.	2a/]	.	8.r	.
.	.	.	.	.	.	16g#X\KL	<
!	!LO:MO:null:mod=[ >	!	!	!	!	!	!
.	.	.	[ >	.	[ >	8.a\	.
.	.	.	.	.	.	16cc\Jk	[
!LO:SIC:s=(4G^	!LO:MO:null:mod=]]	!LO:SIC:s=[4c^	!	!	!	!	!
(>4G\	.	[>4c\	]]	[<4a^>/	]]	[>4ee-X\	>]]
=94	=94	=94	=94	=94	=94	=94	=94
4F#\)	.	4c\]	.	4a/]	.	8.ee-\L]	.
.	.	.	.	.	.	16dd\K	.
4r	.	4r	.	4r	.	8.cc#X\	.
.	.	.	.	.	.	16dd\K	.
4r	.	4r	.	4r	.	8.ff#\	.
.	.	.	.	.	.	16aa\Jk	.
=95	=95	=95	=95	=95	=95	=95	=95
2.r	.	2.r	.	2.r	.	8.ccc\L	.
.	.	.	.	.	.	16bb\K	.
.	.	.	.	.	.	8.aa\	.
.	.	.	.	.	.	16gg\K	.
.	.	.	.	.	.	8.ff#\	.
.	.	.	.	.	.	16ee\Jk	.
=96	=96	=96	=96	=96	=96	=96	=96
!	!	!	!	!	!LO:MO:null:mod=<	!	!
4D\	<	(<4F#/	<	8.d/L	.	8.dd\L	<
!	!	!	!	!LO:SIC:s=(16e	!	!	!
.	.	.	.	16e/K	.	(>16ee\K	.
!	!	!	!	!LO:SIC:s=8.d)	!	!	!
(>4E\	.	4G/	.	8.d/	.	8.dd\)	.
!	!	!	!	!LO:SIC:s=(16c#	!	!	!LO:MO:null:mod=.
.	.	.	.	16c#X/K	.	(>16cc#X\K	[
!	!	!	!	!LO:SIC:s=8.d)	!LO:MO:null:mod=[ >	!	!LO:MO:mod=[ >
4E#X\	[ >	4G#X/	[ >	8.d/	.	8.dd\)	>
!	!	!	!	!	!LO:MO:null:mod=]]	!	!
.	]]	.	]]	(<16e/Jk	.	(>16ee\Jk	]]
!!LO:LB:g=original
=97	=97	=97	=97	=97	=97	=97	=97
4F#\)	.	4A/)	.	8.d/L)	.	8.dd\L)	.
.	.	.	.	(<16c#X/K	.	(>16cc#X\K	.
4r	.	4r	.	8.d/)	.	8.dd\)	.
.	.	.	.	(<16e/K	.	(>16ee\K	.
4r	.	4r	.	8.d/)	.	8.dd\)	.
.	.	.	.	(<16c#/Jk	.	(>16cc#\Jk	.
=98	=98	=98	=98	=98	=98	=98	=98
!LO:MO:mod=!LO&colon;TX&colon;i&colon;t=pizz.	!	!LO:MO:mod=!LO&colon;TX&colon;i&colon;t=pizz.	!	!	!	!	!
!LO:TX:b:Bi:t=pizz&colon;	!	!LO:TX:b:Bi:t=pizz&colon;	!	!	!	!	!
4GG/	.	4B\	.	8.d/L)	.	4dd\)	.
.	.	.	.	16c#X/K	.	.	.
4GG/	.	4B\	.	8.d/	.	4r	.
.	.	.	.	16g/Jk	.	.	.
4GG/	.	4B\	.	4b/	.	4r	.
=99	=99	=99	=99	=99	=99	=99	=99
!	!	!	!	!	!	!LO:MO:mod=!LO&colon;TX&colon;i&colon;t=dolce	!
!	!	!	!	!	!	!LO:TX:b:Bi:t=dol&colon;	!
!	!	!	!	!	!	!	!LO:DY:b:rj
4GG/	.	4B\	.	8.r	.	(>2ddd\	p
.	.	.	.	16a#X\KL	.	.	.
4GG/	.	4B\	.	8.b\	.	.	.
.	.	.	.	16dd\Jk	.	.	.
4GG/	.	4B\	.	4gg\	.	4ddd#X\	.
=100	=100	=100	=100	=100	=100	=100	=100
4GG/	.	4c\	.	8.r	.	2eee\)	.
.	.	.	.	16g#X\KL	.	.	.
4GG/	.	4e 4c\	.	8.a\	.	.	.
.	.	.	.	16cc\Jk	.	.	.
4GG/	.	4e 4c\	.	4ee\	.	(>8.aa\L	.
.	.	.	.	.	.	16bb\Jk	.
=101	=101	=101	=101	=101	=101	=101	=101
4GG/	.	4e-X 4c\	.	8.r	.	2ccc\)	.
.	.	.	.	16g#X\KL	.	.	.
4GG/	.	4e- 4c\	.	8.a\	.	.	.
.	.	.	.	16cc\Jk	.	.	.
4GG/	.	4e- 4c\	.	4ee-X\	.	(>8.aa\L	.
.	.	.	.	.	.	16bb\Jk	.
=102	=102	=102	=102	=102	=102	=102	=102
4FF#/	.	4d 4c\	.	8.r	.	2ccc\)	.
.	.	.	.	16g#X\KL	.	.	.
4FF#/	.	4d 4c\	.	8.a\	.	.	.
.	.	.	.	16cc\Jk	.	.	.
4FF#/	.	4d 4c\	.	4dd\	.	8.ddd\L	.
.	.	.	.	.	.	16ccc\Jk	.
=103	=103	=103	=103	=103	=103	=103	=103
4GG/	.	4d 4B\	.	8.r	.	2bb\	.
.	.	.	.	16a#X\KL	.	.	.
4GG/	.	4d 4B\	.	8.b\	.	.	.
.	.	.	.	16dd\Jk	.	.	.
!	!	!	!	!LO:TX:t=P:problem=mixed beam	!	!	!
4DD-X^>/	.	4B-X^</	.	8.gg\L	.	[>4gg\	.
.	.	.	.	16c#X/Jk	.	.	.
=104	=104	=104	=104	=104	=104	=104	=104
4DD/	.	4Bn/	.	8.d/L	.	2gg\]	.
.	.	.	.	16g/K	.	.	.
4D\	.	4d 4B\	.	8.b/	.	.	.
.	.	.	.	16cc/K	.	.	.
4D\	.	4d 4c\	.	8.a/	.	4ff#\	.
.	.	.	.	16b/Jk	.	.	.
=105	=105	=105	=105	=105	=105	=105	=105
4G\	.	4d 4B\	.	4g/	.	4gg\	.
4GG/	.	4r	.	4r	.	4r	.
!	!	!	!	!	!	!LO:TX:a:Bi:t=D&colon;C&colon;M&colon;\nal fine:problem=dotyczy wszystkich głosów:mod=	!
4r	.	4r	.	4r	.	4r	.
!!LO:TX:a:B:t=:mod=Da Capo al Fine
==:|!	==:|!	==:|!	==:|!	==:|!	==:|!	==:|!	==:|!
*-	*-	*-	*-	*-	*-	*-	*-
!!!system-decoration: [(s1,s2,s3,s4)]
!!!RDF**kern: > = above
!!!RDF**kern: < = below
!!!RDF**kern: N = linked
!!!RDF**kern: i = editorial accidental
!!LO:MO:ori
!!!RDF**dynam: < = "cres", fontstyle= "bold-italic"
!!!RDF**dynam: > = "dim", fontstyle= "bold-italic"
!!LO:MO:end
!!!filter-modern: sic -sq | shed -e "s/yy//" | shed -ke "s/\(y(?!y)/(/" | shed -e "s/^(X?)rep$/$1REP/I" | shed -e "s/TX(.*):t=P:/tx$1:t=P:/LG" | shed -e "s/^(\d+[\/\\]right)/$1yy/I; s/^(\d+[\/\\]left)/$1yy/I" | shed -e "s/:rj/:RJ/L" | shed -e "s/LO:DY:(a|b|rj)/LO:dy:$1/L" | shed -e "s/LO:HP:(a|b|t)/LO:hp:$1/L" | shed -k -e "s/[<>]//g" | modori -m | autostem -r | tie -s
!!!ENC: Krzysztof Stępień
!!!END: 2021-04-06
!!!EED: Wojciech Jakubiak-Danek
!!!EEV: 2021-04-11
!!!ENC-modern: Andrzej Borzym
!!!END-modern: 2022-07-06
